X: 1
T: The Woman Of The House
R: reel
M: 4/4
L: 1/8
K: Gmaj
DBBA B2BA|GABd eBdB|(3ABA GB A2(3Bcd|eB(3BAB eBdB|
DBBA B2BA|GABd eBdB|GABG (3ABA GA |BGAG EGD2:||
f2fd edBd|edge dABd|f2fd edBd|eaag ea(3aba|
f2fd edBd|g2ge dcBA|GABG (3ABA GA |BGAG EGD2:||


Tune 321	Setting 22714

